svgs/sharp-light/mailbox-flag-up.svg

<svg xmlns="http://www.w3.org/2000/svg" viewBox="0 0 576 512"><!--! Font Awesome Pro 6.6.0 by @fontawesome - https://fontawesome.com License - https://fontawesome.com/license (Commercial License) Copyright 2024 Fonticons, Inc. --><path d="M352 208l0-96 0-64 0-16 16 0 96 0 16 0 0 16 0 64 0 16-16 0-80 0 0 80 0 16-32 0 0-16zM448 96l0-32-64 0 0 32 64 0zm96 112c0-30.5-12.2-58.2-32-78.4l0-17.6 0-23.8c38.6 25.8 64 69.8 64 119.8l0 208 0 32-32 0-256 0-32 0L32 448 0 448l0-32L0 208C0 128.5 64.5 64 144 64l176 0 0 32-85.5 0c32.6 26.4 53.5 66.8 53.5 112l0 208 256 0 0-208zM256 416l0-208c0-61.9-50.1-112-112-112S32 146.1 32 208l0 208 224 0zM96 192l16 0 64 0 16 0 0 32-16 0-64 0-16 0 0-32z"/></svg>

<svg xmlns="http://www.w3.org/2000/svg" viewBox="0 0 576 512"><!--! Font Awesome Pro 6.4.2 by @fontawesome - https://fontawesome.com License - https://fontawesome.com/license (Commercial License) Copyright 2023 Fonticons, Inc. --><path d="M352 208V112 48 32h16 96 16V48v64 16H464l-80 0v80 16H352V208zM448 96V64l-64 0V96l64 0zm96 112c0-30.5-12.2-58.2-32-78.4V112 88.2c38.6 25.8 64 69.8 64 119.8V416v32H544 288 256 32 0V416 208C0 128.5 64.5 64 144 64H320V96H234.5c32.6 26.4 53.5 66.8 53.5 112V416H544V208zM256 416V208c0-61.9-50.1-112-112-112S32 146.1 32 208V416H256zM96 192h16 64 16v32H176 112 96V192z"/></svg>
